HTML/img/Rhythms/rhythm5.svg

<svg width="612" height="792" viewBox="0 0 140 50" xmlns="http://www.w3.org/2000/svg"><path class="StaffLines" fill="none" stroke="#000" stroke-width=".4" stroke-linejoin="bevel" d="M4.945 17.143h130.11"/><path class="BarLine" d="M125.821 15.444a1.095 1.095 0 01-.332-.801c0-.313.111-.58.332-.801.222-.221.489-.332.801-.332.313 0 .58.111.801.332.221.221.332.488.332.801 0 .312-.111.579-.332.801a1.092 1.092 0 01-.801.332c-.312 0-.579-.111-.801-.332M125.821 20.444a1.093 1.093 0 01-.332-.801c0-.312.111-.579.332-.801.222-.221.489-.332.801-.332.313 0 .58.111.801.332.221.222.332.489.332.801 0 .313-.111.579-.332.801a1.092 1.092 0 01-.801.332c-.312 0-.579-.111-.801-.332"/><path class="BarLine" fill="none" stroke="#000" stroke-width=".8" stroke-linejoin="bevel" d="M130.155 7.142v20.001"/><path class="BarLine" fill="none" stroke="#000" stroke-width="2.5" stroke-linejoin="bevel" d="M133.806 7.142v20.001"/><path class="Stem" fill="none" stroke="#000" stroke-width=".65" stroke-linecap="round" stroke-linejoin="bevel" d="M114.231 18.082v14.062M103.369 18.082v14.062M92.507 18.082v14.062M64.618 17.927v12.342M43.607 18.082v12.187"/><path class="Note" d="M118.3 14.389c.625 0 1.153.163 1.582.488.404.352.606.794.606 1.328 0 .899-.462 1.739-1.387 2.52-.937.781-1.94 1.172-3.008 1.172-.625 0-1.152-.163-1.582-.489a1.687 1.687 0 01-.605-1.328c0-.898.469-1.738 1.406-2.519.912-.782 1.908-1.172 2.988-1.172M107.438 14.389c.625 0 1.153.163 1.583.488.403.352.605.794.605 1.328 0 .899-.462 1.739-1.387 2.52-.937.781-1.94 1.172-3.008 1.172-.625 0-1.152-.163-1.582-.489a1.687 1.687 0 01-.605-1.328c0-.898.469-1.738 1.406-2.519.912-.782 1.908-1.172 2.988-1.172M96.577 14.389c.625 0 1.152.163 1.582.488.403.352.605.794.605 1.328 0 .899-.462 1.739-1.387 2.52-.937.781-1.94 1.172-3.007 1.172-.625 0-1.153-.163-1.582-.489a1.685 1.685 0 01-.606-1.328c0-.898.469-1.738 1.406-2.519.912-.782 1.908-1.172 2.989-1.172M70.601 15.834a.74.74 0 00-.254-.566.8.8 0 00-.586-.254c-.39 0-1.178.39-2.363 1.172-1.224.794-1.972 1.36-2.246 1.699a.908.908 0 00-.215.566c0 .222.085.41.254.567a.766.766 0 00.586.254c.378 0 1.172-.391 2.383-1.172 1.198-.781 1.94-1.348 2.226-1.699a.855.855 0 00.215-.567m-1.035-1.445c1.12 0 1.68.482 1.68 1.445 0 .469-.137 1.016-.41 1.641-.274.612-.638 1.081-1.094 1.406-1.003.677-2.259 1.016-3.77 1.016-1.119 0-1.679-.482-1.679-1.446 0-.429.136-.97.41-1.621.26-.625.625-1.1 1.094-1.426 1.002-.677 2.259-1.015 3.769-1.015M47.676 14.389c.625 0 1.153.163 1.582.488.404.352.606.794.606 1.328 0 .899-.462 1.739-1.387 2.52-.937.781-1.94 1.172-3.008 1.172-.625 0-1.152-.163-1.582-.489a1.687 1.687 0 01-.605-1.328c0-.898.469-1.738 1.406-2.519.912-.782 1.908-1.172 2.988-1.172"/><path class="Clef" d="M17.95 22.143h-1.836c-.143 0-.215-.065-.215-.196v-9.609c0-.13.072-.195.215-.195h1.836c.13 0 .195.065.195.195v9.609c0 .131-.065.196-.195.196m-4.414 0H11.68c-.13 0-.195-.065-.195-.196v-9.609c0-.13.065-.195.195-.195h1.856c.143 0 .215.065.215.195v9.609c0 .131-.072.196-.215.196"/><path class="TimeSig" d="M31.023 7.396c.391 0 .723-.045.996-.136.274-.092.449-.137.527-.137a.29.29 0 01.215.078.29.29 0 01.078.137.3.3 0 01-.039.117l-5.683 6.601h3.34v-2.617c0-.169.045-.312.136-.429.157-.131.287-.209.391-.235.169-.078.378-.26.625-.547.208-.234.456-.644.742-1.23.039-.078.098-.117.176-.117.156 0 .247.091.273.273v4.902h1.426c.182 0 .287.098.313.293 0 .196-.105.293-.313.293H32.8v.157c0 .521.131.963.391 1.328.299.364.651.547 1.055.547.156 0 .234.078.234.234 0 .156-.078.234-.234.234-.274 0-.716-.039-1.328-.117-.56-.091-.997-.136-1.309-.136-.326 0-.762.045-1.309.136-.586.078-1.022.117-1.308.117-.156 0-.235-.078-.235-.234 0-.156.079-.234.235-.234.403 0 .755-.183 1.054-.547.274-.365.411-.807.411-1.328v-.157h-3.34c-.222 0-.378-.052-.469-.156a.37.37 0 01-.156-.312c0-.039.097-.176.293-.41a9.88 9.88 0 00.703-.958c.286-.442.56-.898.82-1.367a7.772 7.772 0 00.684-1.836 8 8 0 00.293-2.148c0-.208.091-.313.273-.313.039 0 .124.02.254.059.039.013.121.033.244.059.124.026.225.052.303.078.234.039.456.058.664.058"/><path class="TimeSig" d="M31.023 17.397c.391 0 .723-.046.996-.137.274-.091.449-.136.527-.136a.29.29 0 01.215.078.288.288 0 01.078.136.308.308 0 01-.039.118l-5.683 6.601h3.34V21.44a.68.68 0 01.136-.43c.157-.13.287-.208.391-.234.169-.078.378-.261.625-.547.208-.234.456-.645.742-1.23.039-.079.098-.118.176-.118.156 0 .247.091.273.274v4.902h1.426c.182 0 .287.098.313.293 0 .195-.105.293-.313.293H32.8v.156c0 .521.131.964.391 1.328.299.365.651.547 1.055.547.156 0 .234.078.234.235 0 .156-.078.234-.234.234-.274 0-.716-.039-1.328-.117-.56-.091-.997-.137-1.309-.137-.326 0-.762.046-1.309.137-.586.078-1.022.117-1.308.117-.156 0-.235-.078-.235-.234 0-.157.079-.235.235-.235.403 0 .755-.182 1.054-.547.274-.364.411-.807.411-1.328v-.156h-3.34c-.222 0-.378-.052-.469-.156a.371.371 0 01-.156-.313c0-.039.097-.175.293-.41.221-.26.455-.579.703-.957.286-.443.56-.898.82-1.367a7.772 7.772 0 00.684-1.836 8 8 0 00.293-2.148c0-.209.091-.313.273-.313.039 0 .124.02.254.059.039.013.121.032.244.058.124.026.225.052.303.078.234.039.456.059.664.059"/><path class="Beam" fill-rule="evenodd" d="M92.182 30.894h22.374v2.5H92.182v-2.5"/><path class="Tuplet" d="M101.944 39.037c1.593-.26 2.39-.814 2.39-1.66 0-.274-.082-.494-.245-.66-.163-.167-.378-.25-.645-.25-.407 0-.78.223-1.12.67l-.16-.05a1.99 1.99 0 01.685-.775c.29-.19.608-.285.955-.285.4 0 .733.122 1 .365.267.244.4.552.4.925 0 .34-.108.613-.325.82-.217.206-.628.426-1.235.66v.03c.64.293.96.79.96 1.49 0 .693-.257 1.293-.77 1.8-.513.506-1.187.76-2.02.76-.747 0-1.12-.197-1.12-.59 0-.26.147-.39.44-.39.167 0 .39.1.67.3.28.2.51.3.69.3.36 0 .668-.152.925-.455.257-.304.385-.699.385-1.185 0-.627-.157-1.06-.47-1.3-.313-.24-.777-.36-1.39-.36v-.16"/></svg>

<?xml version="1.0" encoding="utf-8"?>
<svg width="612px" height="792px" viewBox="0 0 140 50" xmlns="http://www.w3.org/2000/svg">
  <title>Rythm rythms</title>
  <desc>Generated by MuseScore 2.0.3</desc>
  <polyline class="StaffLines" fill="none" stroke="#000000" stroke-width="0.40" stroke-linejoin="bevel" points="4.945 17.143 135.055 17.143"/>
  <path class="BarLine" d="M 125.821 15.444 C 125.6 15.222 125.489 14.955 125.489 14.643 C 125.489 14.33 125.6 14.063 125.821 13.842 C 126.043 13.621 126.31 13.51 126.622 13.51 C 126.935 13.51 127.202 13.621 127.423 13.842 C 127.644 14.063 127.755 14.33 127.755 14.643 C 127.755 14.955 127.644 15.222 127.423 15.444 C 127.202 15.665 126.935 15.776 126.622 15.776 C 126.31 15.776 126.043 15.665 125.821 15.444"/>
  <path class="BarLine" d="M 125.821 20.444 C 125.6 20.222 125.489 19.956 125.489 19.643 C 125.489 19.331 125.6 19.064 125.821 18.842 C 126.043 18.621 126.31 18.51 126.622 18.51 C 126.935 18.51 127.202 18.621 127.423 18.842 C 127.644 19.064 127.755 19.331 127.755 19.643 C 127.755 19.956 127.644 20.222 127.423 20.444 C 127.202 20.665 126.935 20.776 126.622 20.776 C 126.31 20.776 126.043 20.665 125.821 20.444"/>
  <polyline class="BarLine" fill="none" stroke="#000000" stroke-width="0.80" stroke-linejoin="bevel" points="130.155 7.142 130.155 27.143"/>
  <polyline class="BarLine" fill="none" stroke="#000000" stroke-width="2.50" stroke-linejoin="bevel" points="133.806 7.142 133.806 27.143"/>
  <polyline class="Stem" fill="none" stroke="#000000" stroke-width="0.65" stroke-linecap="round" stroke-linejoin="bevel" points="114.231 18.082 114.231 32.144"/>
  <polyline class="Stem" fill="none" stroke="#000000" stroke-width="0.65" stroke-linecap="round" stroke-linejoin="bevel" points="103.369 18.082 103.369 32.144"/>
  <polyline class="Stem" fill="none" stroke="#000000" stroke-width="0.65" stroke-linecap="round" stroke-linejoin="bevel" points="92.507 18.082 92.507 32.144"/>
  <polyline class="Stem" fill="none" stroke="#000000" stroke-width="0.65" stroke-linecap="round" stroke-linejoin="bevel" points="64.618 17.927 64.618 30.269"/>
  <polyline class="Stem" fill="none" stroke="#000000" stroke-width="0.65" stroke-linecap="round" stroke-linejoin="bevel" points="43.607 18.082 43.607 30.269"/>
  <path class="Note" d="M 118.3 14.389 C 118.925 14.389 119.453 14.552 119.882 14.877 C 120.286 15.229 120.488 15.671 120.488 16.205 C 120.488 17.104 120.026 17.944 119.101 18.725 C 118.164 19.506 117.161 19.897 116.093 19.897 C 115.468 19.897 114.941 19.734 114.511 19.408 C 114.108 19.057 113.906 18.614 113.906 18.08 C 113.906 17.182 114.375 16.342 115.312 15.561 C 116.224 14.779 117.22 14.389 118.3 14.389"/>
  <path class="Note" d="M 107.438 14.389 C 108.063 14.389 108.591 14.552 109.021 14.877 C 109.424 15.229 109.626 15.671 109.626 16.205 C 109.626 17.104 109.164 17.944 108.239 18.725 C 107.302 19.506 106.299 19.897 105.231 19.897 C 104.606 19.897 104.079 19.734 103.649 19.408 C 103.246 19.057 103.044 18.614 103.044 18.08 C 103.044 17.182 103.513 16.342 104.45 15.561 C 105.362 14.779 106.358 14.389 107.438 14.389"/>
  <path class="Note" d="M 96.577 14.389 C 97.202 14.389 97.729 14.552 98.159 14.877 C 98.562 15.229 98.764 15.671 98.764 16.205 C 98.764 17.104 98.302 17.944 97.377 18.725 C 96.44 19.506 95.437 19.897 94.37 19.897 C 93.745 19.897 93.217 19.734 92.788 19.408 C 92.384 19.057 92.182 18.614 92.182 18.08 C 92.182 17.182 92.651 16.342 93.588 15.561 C 94.5 14.779 95.496 14.389 96.577 14.389"/>
  <path class="Note" d="M 70.601 15.834 C 70.601 15.613 70.517 15.424 70.347 15.268 C 70.178 15.098 69.983 15.014 69.761 15.014 C 69.371 15.014 68.583 15.404 67.398 16.186 C 66.174 16.98 65.426 17.546 65.152 17.885 C 65.009 18.067 64.937 18.256 64.937 18.451 C 64.937 18.673 65.022 18.861 65.191 19.018 C 65.347 19.187 65.543 19.272 65.777 19.272 C 66.155 19.272 66.949 18.881 68.16 18.1 C 69.358 17.319 70.1 16.752 70.386 16.401 C 70.53 16.231 70.601 16.042 70.601 15.834 M 69.566 14.389 C 70.686 14.389 71.246 14.871 71.246 15.834 C 71.246 16.303 71.109 16.85 70.836 17.475 C 70.562 18.087 70.198 18.556 69.742 18.881 C 68.739 19.558 67.483 19.897 65.972 19.897 C 64.853 19.897 64.293 19.415 64.293 18.451 C 64.293 18.022 64.429 17.481 64.703 16.83 C 64.963 16.205 65.328 15.73 65.797 15.404 C 66.799 14.727 68.056 14.389 69.566 14.389"/>
  <path class="Note" d="M 47.676 14.389 C 48.301 14.389 48.829 14.552 49.258 14.877 C 49.662 15.229 49.864 15.671 49.864 16.205 C 49.864 17.104 49.402 17.944 48.477 18.725 C 47.54 19.506 46.537 19.897 45.469 19.897 C 44.844 19.897 44.317 19.734 43.887 19.408 C 43.484 19.057 43.282 18.614 43.282 18.08 C 43.282 17.182 43.751 16.342 44.688 15.561 C 45.6 14.779 46.596 14.389 47.676 14.389"/>
  <path class="Clef" d="M 17.95 22.143 L 16.114 22.143 C 15.971 22.143 15.899 22.078 15.899 21.947 L 15.899 12.338 C 15.899 12.208 15.971 12.143 16.114 12.143 L 17.95 12.143 C 18.08 12.143 18.145 12.208 18.145 12.338 L 18.145 21.947 C 18.145 22.078 18.08 22.143 17.95 22.143 M 13.536 22.143 L 11.68 22.143 C 11.55 22.143 11.485 22.078 11.485 21.947 L 11.485 12.338 C 11.485 12.208 11.55 12.143 11.68 12.143 L 13.536 12.143 C 13.679 12.143 13.751 12.208 13.751 12.338 L 13.751 21.947 C 13.751 22.078 13.679 22.143 13.536 22.143"/>
  <path class="TimeSig" d="M 31.023 7.396 C 31.414 7.396 31.746 7.351 32.019 7.26 C 32.293 7.168 32.468 7.123 32.546 7.123 C 32.638 7.123 32.709 7.149 32.761 7.201 C 32.8 7.24 32.826 7.286 32.839 7.338 C 32.839 7.364 32.826 7.403 32.8 7.455 L 27.117 14.056 L 30.457 14.056 L 30.457 11.439 C 30.457 11.27 30.502 11.127 30.593 11.01 C 30.75 10.879 30.88 10.801 30.984 10.775 C 31.153 10.697 31.362 10.515 31.609 10.228 C 31.817 9.994 32.065 9.584 32.351 8.998 C 32.39 8.92 32.449 8.881 32.527 8.881 C 32.683 8.881 32.774 8.972 32.8 9.154 L 32.8 14.056 L 34.226 14.056 C 34.408 14.056 34.513 14.154 34.539 14.349 C 34.539 14.545 34.434 14.642 34.226 14.642 L 32.8 14.642 L 32.8 14.799 C 32.8 15.32 32.931 15.762 33.191 16.127 C 33.49 16.491 33.842 16.674 34.246 16.674 C 34.402 16.674 34.48 16.752 34.48 16.908 C 34.48 17.064 34.402 17.142 34.246 17.142 C 33.972 17.142 33.53 17.103 32.918 17.025 C 32.358 16.934 31.921 16.889 31.609 16.889 C 31.283 16.889 30.847 16.934 30.3 17.025 C 29.714 17.103 29.278 17.142 28.992 17.142 C 28.836 17.142 28.757 17.064 28.757 16.908 C 28.757 16.752 28.836 16.674 28.992 16.674 C 29.395 16.674 29.747 16.491 30.046 16.127 C 30.32 15.762 30.457 15.32 30.457 14.799 L 30.457 14.642 L 27.117 14.642 C 26.895 14.642 26.739 14.59 26.648 14.486 C 26.544 14.408 26.492 14.304 26.492 14.174 C 26.492 14.135 26.589 13.998 26.785 13.764 C 27.006 13.503 27.24 13.184 27.488 12.806 C 27.774 12.364 28.048 11.908 28.308 11.439 C 28.595 10.905 28.823 10.293 28.992 9.603 C 29.187 8.9 29.285 8.184 29.285 7.455 C 29.285 7.247 29.376 7.142 29.558 7.142 C 29.597 7.142 29.682 7.162 29.812 7.201 C 29.851 7.214 29.933 7.234 30.056 7.26 C 30.18 7.286 30.281 7.312 30.359 7.338 C 30.593 7.377 30.815 7.396 31.023 7.396"/>
  <path class="TimeSig" d="M 31.023 17.397 C 31.414 17.397 31.746 17.351 32.019 17.26 C 32.293 17.169 32.468 17.124 32.546 17.124 C 32.638 17.124 32.709 17.15 32.761 17.202 C 32.8 17.241 32.826 17.286 32.839 17.338 C 32.839 17.364 32.826 17.403 32.8 17.456 L 27.117 24.057 L 30.457 24.057 L 30.457 21.44 C 30.457 21.271 30.502 21.127 30.593 21.01 C 30.75 20.88 30.88 20.802 30.984 20.776 C 31.153 20.698 31.362 20.515 31.609 20.229 C 31.817 19.995 32.065 19.584 32.351 18.999 C 32.39 18.92 32.449 18.881 32.527 18.881 C 32.683 18.881 32.774 18.972 32.8 19.155 L 32.8 24.057 L 34.226 24.057 C 34.408 24.057 34.513 24.155 34.539 24.35 C 34.539 24.545 34.434 24.643 34.226 24.643 L 32.8 24.643 L 32.8 24.799 C 32.8 25.32 32.931 25.763 33.191 26.127 C 33.49 26.492 33.842 26.674 34.246 26.674 C 34.402 26.674 34.48 26.752 34.48 26.909 C 34.48 27.065 34.402 27.143 34.246 27.143 C 33.972 27.143 33.53 27.104 32.918 27.026 C 32.358 26.935 31.921 26.889 31.609 26.889 C 31.283 26.889 30.847 26.935 30.3 27.026 C 29.714 27.104 29.278 27.143 28.992 27.143 C 28.836 27.143 28.757 27.065 28.757 26.909 C 28.757 26.752 28.836 26.674 28.992 26.674 C 29.395 26.674 29.747 26.492 30.046 26.127 C 30.32 25.763 30.457 25.32 30.457 24.799 L 30.457 24.643 L 27.117 24.643 C 26.895 24.643 26.739 24.591 26.648 24.487 C 26.544 24.409 26.492 24.305 26.492 24.174 C 26.492 24.135 26.589 23.999 26.785 23.764 C 27.006 23.504 27.24 23.185 27.488 22.807 C 27.774 22.364 28.048 21.909 28.308 21.44 C 28.595 20.906 28.823 20.294 28.992 19.604 C 29.187 18.901 29.285 18.185 29.285 17.456 C 29.285 17.247 29.376 17.143 29.558 17.143 C 29.597 17.143 29.682 17.163 29.812 17.202 C 29.851 17.215 29.933 17.234 30.056 17.26 C 30.18 17.286 30.281 17.312 30.359 17.338 C 30.593 17.377 30.815 17.397 31.023 17.397"/>
  <path class="Beam" fill-rule="evenodd" d="M 92.182 30.894 L 114.556 30.894 L 114.556 33.394 L 92.182 33.394 L 92.182 30.894"/>
  <path class="Tuplet" d="M 101.944 39.037 C 103.537 38.777 104.334 38.223 104.334 37.377 C 104.334 37.103 104.252 36.883 104.089 36.717 C 103.926 36.55 103.711 36.467 103.444 36.467 C 103.037 36.467 102.664 36.69 102.324 37.137 L 102.164 37.087 C 102.331 36.761 102.559 36.502 102.849 36.312 C 103.139 36.122 103.457 36.027 103.804 36.027 C 104.204 36.027 104.537 36.149 104.804 36.392 C 105.071 36.636 105.204 36.944 105.204 37.317 C 105.204 37.657 105.096 37.93 104.879 38.137 C 104.662 38.343 104.251 38.563 103.644 38.797 L 103.644 38.827 C 104.284 39.12 104.604 39.617 104.604 40.317 C 104.604 41.01 104.347 41.61 103.834 42.117 C 103.321 42.623 102.647 42.877 101.814 42.877 C 101.067 42.877 100.694 42.68 100.694 42.287 C 100.694 42.027 100.841 41.897 101.134 41.897 C 101.301 41.897 101.524 41.997 101.804 42.197 C 102.084 42.397 102.314 42.497 102.494 42.497 C 102.854 42.497 103.162 42.345 103.419 42.042 C 103.676 41.738 103.804 41.343 103.804 40.857 C 103.804 40.23 103.647 39.797 103.334 39.557 C 103.021 39.317 102.557 39.197 101.944 39.197 L 101.944 39.037"/>
</svg>
